src/lib/packages/icons/src/assets/line/file-clock.svg

<svg xmlns="http://www.w3.org/2000/svg" width="24" height="24" fill="none"><path fill="currentColor" d="m20.53 8.47-6-6a.749.749 0 0 0-.53-.22H8C5.582 2.25 4.25 3.582 4.25 6v12c0 2.418 1.332 3.75 3.75 3.75h9c2.418 0 3.75-1.332 3.75-3.75V9a.747.747 0 0 0-.22-.53Zm-5.78-3.659 3.439 3.439H17c-1.577 0-2.25-.673-2.25-2.25V4.811ZM17 20.25H8c-1.577 0-2.25-.673-2.25-2.25V6c0-1.577.673-2.25 2.25-2.25h5.25V6c0 2.418 1.332 3.75 3.75 3.75h2.25V18c0 1.577-.673 2.25-2.25 2.25Zm-4.5-10a4.254 4.254 0 0 0-4.25 4.25 4.254 4.254 0 0 0 4.25 4.25 4.254 4.254 0 0 0 4.25-4.25 4.254 4.254 0 0 0-4.25-4.25Zm0 7a2.752 2.752 0 0 1-2.75-2.75 2.752 2.752 0 0 1 2.75-2.75 2.752 2.752 0 0 1 2.75 2.75 2.752 2.752 0 0 1-2.75 2.75Zm1.468-2.343a.75.75 0 0 1-1.06 1.061l-.938-.938a.749.749 0 0 1-.22-.53v-1.312a.75.75 0 0 1 1.5 0v1.002l.718.717Z"/></svg>

<svg width="24" height="24" viewBox="0 0 24 24" fill="none" xmlns="http://www.w3.org/2000/svg">
<path d="M20.53 8.47L14.53 2.47C14.389 2.329 14.199 2.25 14 2.25H8C5.582 2.25 4.25 3.582 4.25 6V18C4.25 20.418 5.582 21.75 8 21.75H17C19.418 21.75 20.75 20.418 20.75 18V9C20.75 8.801 20.671 8.61 20.53 8.47ZM14.75 4.811L18.189 8.25H17C15.423 8.25 14.75 7.577 14.75 6V4.811ZM17 20.25H8C6.423 20.25 5.75 19.577 5.75 18V6C5.75 4.423 6.423 3.75 8 3.75H13.25V6C13.25 8.418 14.582 9.75 17 9.75H19.25V18C19.25 19.577 18.577 20.25 17 20.25ZM12.5 10.25C10.156 10.25 8.25 12.156 8.25 14.5C8.25 16.844 10.156 18.75 12.5 18.75C14.844 18.75 16.75 16.844 16.75 14.5C16.75 12.156 14.844 10.25 12.5 10.25ZM12.5 17.25C10.983 17.25 9.75 16.017 9.75 14.5C9.75 12.983 10.983 11.75 12.5 11.75C14.017 11.75 15.25 12.983 15.25 14.5C15.25 16.017 14.017 17.25 12.5 17.25ZM13.968 14.907C14.261 15.2 14.261 15.675 13.968 15.968C13.822 16.114 13.63 16.188 13.438 16.188C13.246 16.188 13.054 16.115 12.908 15.968L11.97 15.03C11.829 14.889 11.75 14.699 11.75 14.5V13.188C11.75 12.774 12.086 12.438 12.5 12.438C12.914 12.438 13.25 12.774 13.25 13.188V14.19L13.968 14.907Z" fill="currentColor"/>
</svg>
